rospo-icon-theme-classic-common/64x64/apps/qomp.svg

<svg height="64" width="64" xmlns="http://www.w3.org/2000/svg"><path d="m59.958 31.828a28 28 0 0 1 -27.958 27.172 28 28 0 0 1 -27.956-26.828 28 28 0 0 0 -.044.828 28 28 0 0 0 28 28 28 28 0 0 0 28-28 28 28 0 0 0 -.042-1.172z" opacity=".2"/><circle cx="32" cy="32" fill="#2f67ba" r="28"/><rect height="40" opacity=".2" rx="20" transform="matrix(0 -1 -1 0 0 0)" width="40" x="-53" y="-52"/><rect fill="#4bd076" height="40" rx="20" transform="matrix(0 -1 -1 0 0 0)" width="40" x="-52" y="-52"/><path d="m110 507v .5l-.00001 4.7695c-.30389-.17609-.64878-.26905-1-.26953-1.1046 0-2 .89543-2 2s .89543 2 2 2 2-.89543 2-2l .00001-5h4l-.00001 3.2695c-.30389-.17609-.64878-.26905-1-.26953-1.1046 0-2 .89543-2 2s .89543 2 2 2 2-.89543 2-2l .00001-7h-.5z" opacity=".2" transform="matrix(2 0 0 2 -192 -990.99994)"/><path d="m110 507v .5l-.00001 4.7695c-.30389-.17609-.64878-.26905-1-.26953-1.1046 0-2 .89543-2 2s .89543 2 2 2 2-.89543 2-2l .00001-5h4l-.00001 3.2695c-.30389-.17609-.64878-.26905-1-.26953-1.1046 0-2 .89543-2 2s .89543 2 2 2 2-.89543 2-2l .00001-7h-.5z" fill="#3f3f3f" transform="matrix(2 0 0 2 -192 -991.99994)"/><path d="m31.998047 4a28 28 0 0 0 -27.998047 28 28 28 0 0 0  .0175781.492188 28 28 0 0 1 27.9804689-27.492188h.001953a28 28 0 0 1 27.972656 27.5 28 28 0 0 0  .025391-.5 28 28 0 0 0 -27.998047-28z" fill="#fff" opacity=".2"/><path d="m32 12c-11.08 0-20 8.92-20 20 0 .167874.007647.333141.011719.5.264671-10.846137 9.076155-19.5 19.988281-19.5s19.72361 8.653863 19.988281 19.5c.004072-.166859.011719-.332126.011719-.5 0-11.08-8.92-20-20-20z" fill="#fff" opacity=".2"/></svg>

<svg xmlns="http://www.w3.org/2000/svg" width="64" height="64" version="1">
 <path style="opacity:0.2" d="M 59.958,31.828 A 28,28 0 0 1 32,59 28,28 0 0 1 4.044,32.172 28,28 0 0 0 4,33 28,28 0 0 0 32,61 28,28 0 0 0 60,33 28,28 0 0 0 59.958,31.828 Z"/>
 <circle style="fill:#2f67ba" cx="32" cy="32" r="28"/>
 <rect style="opacity:0.2" width="40" height="40" x="-53" y="-52" rx="20" ry="20" transform="matrix(0,-1,-1,0,0,0)"/>
 <rect style="fill:#4bd076" width="40" height="40" x="-52" y="-52" rx="20" ry="20" transform="matrix(0,-1,-1,0,0,0)"/>
 <g style="opacity:0.2;enable-background:new" transform="translate(-461,-153.99994)">
  <path d="m 110,507 0,0.5 -1e-5,4.7695 c -0.30389,-0.17609 -0.64878,-0.26905 -1,-0.26953 -1.1046,0 -2,0.89543 -2,2 0,1.10457 0.89543,2 2,2 1.10457,0 2,-0.89543 2,-2 l 1e-5,-5 4,0 -1e-5,3.2695 c -0.30389,-0.17609 -0.64878,-0.26905 -1,-0.26953 -1.1046,0 -2,0.89543 -2,2 0,1.10457 0.89543,2 2,2 1.10457,0 2,-0.89543 2,-2 l 1e-5,-7 -0.5,0 z" transform="matrix(2,0,0,2,269,-837)"/>
 </g>
 <g style="fill:#3f3f3f;enable-background:new" transform="translate(-461,-154.99994)">
  <path style="fill:#3f3f3f" d="m 110,507 0,0.5 -1e-5,4.7695 c -0.30389,-0.17609 -0.64878,-0.26905 -1,-0.26953 -1.1046,0 -2,0.89543 -2,2 0,1.10457 0.89543,2 2,2 1.10457,0 2,-0.89543 2,-2 l 1e-5,-5 4,0 -1e-5,3.2695 c -0.30389,-0.17609 -0.64878,-0.26905 -1,-0.26953 -1.1046,0 -2,0.89543 -2,2 0,1.10457 0.89543,2 2,2 1.10457,0 2,-0.89543 2,-2 l 1e-5,-7 -0.5,0 z" transform="matrix(2,0,0,2,269,-837)"/>
 </g>
 <path style="opacity:0.2;fill:#ffffff" d="M 31.998047 4 A 28 28 0 0 0 4 32 A 28 28 0 0 0 4.0175781 32.492188 A 28 28 0 0 1 31.998047 5 L 32 5 A 28 28 0 0 1 59.972656 32.5 A 28 28 0 0 0 59.998047 32 A 28 28 0 0 0 32 4 L 31.998047 4 z"/>
 <path style="fill:#ffffff;opacity:0.2" d="M 32 12 C 20.92 12 12 20.92 12 32 C 12 32.167874 12.007647 32.333141 12.011719 32.5 C 12.27639 21.653863 21.087874 13 32 13 C 42.912126 13 51.72361 21.653863 51.988281 32.5 C 51.992353 32.333141 52 32.167874 52 32 C 52 20.92 43.08 12 32 12 z"/>
</svg>
